svgs/smartlife.svg

<svg width="24" height="24" viewBox="0 0 24 24" fill="none" xmlns="http://www.w3.org/2000/svg">
<path fill-rule="evenodd" clip-rule="evenodd" d="M16.9974 2.21062C16.6996 2.54074 16.7119 3.08954 17.0207 3.25492C17.1554 3.32697 17.5971 3.38724 18.0021 3.38876C19.3765 3.39396 20.5031 4.24806 20.8897 5.57803C21.1059 6.32146 21.4428 6.59435 21.9248 6.41606C22.732 6.11747 22.1632 4.31872 20.8907 3.14576C20.0878 2.40563 19.3209 2.08868 18.1687 2.0208C17.3465 1.97243 17.1893 1.99788 16.9974 2.21062ZM11.1409 4.58337C10.9319 4.67935 9.16801 5.89194 7.22098 7.27801C4.20141 9.42764 3.6383 9.87895 3.39049 10.3475C3.10203 10.893 3.10001 10.9315 3.10001 15.7966C3.10001 20.6799 3.10102 20.698 3.38745 21.1268C3.99033 22.0294 3.69883 21.9999 12.0273 21.9999C20.3557 21.9999 20.0642 22.0294 20.6671 21.1268C20.9535 20.698 20.9545 20.6797 20.9545 15.8036C20.9545 10.9797 20.9505 10.9027 20.6696 10.3509C20.4208 9.86198 19.9357 9.47234 16.8391 7.27434C14.8891 5.89004 13.1102 4.67682 12.8861 4.57818C12.3755 4.35367 11.6362 4.35582 11.1409 4.58337ZM16.8588 4.6306C16.4109 5.12546 16.749 5.58854 17.6404 5.70124C18.2866 5.78292 18.6131 6.04314 18.8072 6.63132C18.967 7.11555 19.3243 7.36361 19.6932 7.24661C20.605 6.95714 20.021 5.27425 18.791 4.64668C18.1531 4.32125 17.1463 4.31289 16.8588 4.6306ZM15.9791 9.63126L18.5381 11.4268L18.5433 15.5106L18.5486 19.5943H12.0273H5.50593L5.51341 15.5106L5.521 11.4268L8.77407 9.13399L12.0273 6.84114L12.7237 7.33841C13.1068 7.6118 14.5717 8.64369 15.9791 9.63126Z" fill="black"/>
</svg>

<svg xmlns="http://www.w3.org/2000/svg" width="24" height="24" fill="none" viewBox="0 0 24 24"><path fill="#000" fill-rule="evenodd" d="M16.997 2.21c-.297.33-.285.88.024 1.045.134.072.576.132.981.134 1.375.005 2.501.86 2.888 2.189.216.743.553 1.016 1.035.838.807-.299.238-2.097-1.034-3.27-.803-.74-1.57-1.057-2.722-1.125-.823-.049-.98-.023-1.172.19m-5.856 2.373c-.21.096-1.973 1.309-3.92 2.695-3.02 2.15-3.583 2.601-3.83 3.07-.289.545-.291.583-.291 5.449 0 4.883.001 4.901.287 5.33.603.902.312.873 8.64.873 8.329 0 8.037.03 8.64-.873.286-.429.287-.447.287-5.323 0-4.824-.003-4.901-.284-5.453-.25-.489-.734-.879-3.83-3.077-1.95-1.384-3.73-2.597-3.954-2.696-.51-.224-1.25-.222-1.745.005m5.718.048c-.448.494-.11.958.781 1.07.647.082.973.342 1.167.93.16.485.517.733.886.616.912-.29.328-1.973-.902-2.6-.638-.326-1.645-.334-1.932-.016m-.88 5 2.56 1.796.004 4.084.006 4.083H5.506l.007-4.083.008-4.084 3.253-2.293 3.253-2.293.697.497c.383.274 1.848 1.306 3.255 2.293" clip-rule="evenodd"/></svg>
